X:1
T:Novello, 88.88.88
T:Novello, 88.88.88
T:Vincent Novello (1781-1861)
T:Public Domain Courtesy of the Cyber Hymnal™
C:Vincent Novello (1781-1861)
Z:Public Domain
Z:Courtesy of the Cyber Hymnal™
%%score ( 1 2 ) ( 3 4 )
L:1/8
Q:1/4=108
M:4/4
K:D
V:1 treble 
V:2 treble 
V:3 bass 
V:4 bass 
V:1
 [FA]2 | [Ad]2 F2 [DG]2 [DB]2 | [CA]2 [EG]2 [DF]2 [DG]2 | [DA]2 [Fd]2 [DB]2 D2 | %4
 [CG]2 [DF]2 [CE]2 [EA]2 | [E^G]2 [EB]2 [EA]2 [Ac]2 | [Be]2 [^Gd]2 [Ac]2 [EA]2 | %7
 [Dd]2 [FB]2 [D^G]2 [CA]2 | [Ac]2 [^GB]2 A2 [Ac]2 | [Ad]2 [DF]2 [DG]2 [GB]2 | %10
 [EA]2 [EG]2 [DF]2 [DG]2 | [DA]2 [Fd]2 [DB]2 [Ge]2 | [Fd]2 [Ec]2 [Fd]2 |] %13
V:2
 x2 | x2 F2 x4 | x8 | x6 D2 | x8 | x8 | x8 | x8 | x4 A2 x2 | x8 | x8 | x8 | x6 |] %13
V:3
 [D,D]2 | [F,D]2 [D,A,]2 [B,,G,]2 [G,,G,]2 | [A,,E,]2 [C,A,]2 [D,A,]2 B,2 | %3
 [F,A,]2 [D,A,]2 G,2 [F,A,]2 | [E,A,]2 [D,A,]2 [A,,A,]2 [C,A,]2 | [E,B,]2 [D,^G,]2 [C,A,]2 [A,E]2 | %6
 [^G,E]2 [B,E]2 [A,E]2 [A,C]2 | [F,A,]2 [D,D]2 [E,B,]2 [F,A,]2 | [E,E]2 [E,D]2 [A,,C]2 [G,C]2 | %9
 [F,D]2 [=CD]2 [B,D]2 [G,D]2 | [A,C]2 [C,A,]2 [D,A,]2 B,2 | [F,A,]2 [D,A,]2 G,2 [E,B,]2 | %12
 A,2 [A,,A,]2 [D,A,]2 |] %13
V:4
 x2 | x8 | x6 B,2 | x4 G,2 x2 | x8 | x8 | x8 | x8 | x8 | x8 | x6 B,2 | x4 G,2 x2 | A,2 x4 |] %13

